X: 33484
T: Raggle Taggle Gypsies, The
R: polka
M: 2/4
K: Dmajor
BA|GEFD|E2 BA|GEFD|E3 B|e2e2|f3e|dBcA|B4|
d2d2|e2Bc|dcBA|G2EF|GFGA|BdBA|GEFD|E4|

